assets/Skier/Flat/skier_flat.svg

<svg width="32" height="32" viewBox="0 0 32 32" fill="none" xmlns="http://www.w3.org/2000/svg">
<path d="M19.0559 10.9694L14.2173 7.42158L14.2146 7.42525C14.1706 7.39674 14.1256 7.36931 14.0795 7.34301C12.7606 6.58997 11.0809 7.04874 10.3279 8.36769C9.65362 9.54866 9.95087 11.0188 10.9672 11.8541L10.9651 11.857L11.0447 11.9154C11.0726 11.9367 11.1011 11.9576 11.13 11.9779L15.7996 15.4018C16.8824 16.2351 18.4416 16.1513 19.4281 15.1553C20.4968 14.0762 20.4884 12.335 19.4093 11.2662C19.298 11.156 19.1799 11.0568 19.0559 10.9694Z" fill="#F8312F"/>
<path d="M8.66534 7.15736C9.03273 6.6563 9.73675 6.54794 10.2378 6.91534L12.4555 8.54144C12.9566 8.90883 13.065 9.61285 12.6976 10.1139C12.3302 10.615 11.6261 10.7233 11.1251 10.3559L8.90736 8.72984C8.4063 8.36244 8.29794 7.65842 8.66534 7.15736Z" fill="#F8312F"/>
<path d="M14.8921 14.1246C14.7799 13.7891 14.7342 13.4363 14.7548 13.0867L19.3076 11.1775C19.3544 11.2183 19.4 11.261 19.4445 11.3055C20.5185 12.3794 20.5185 14.1206 19.4445 15.1946C19.1277 15.5115 18.7527 15.7348 18.3539 15.8647L15.2448 17.2524L17.3636 21.8751C17.7088 22.6282 17.3781 23.5185 16.625 23.8637C15.8719 24.2088 14.9816 23.8781 14.6364 23.125L11.8864 17.125C11.7196 16.761 11.7052 16.3454 11.8465 15.9708C11.9878 15.5961 12.273 15.2935 12.6387 15.1303L14.8921 14.1246Z" fill="#9B9B9B"/>
<path d="M24.4577 10.4733C24.5645 10.7279 24.4446 11.0209 24.19 11.1277L8.55482 17.7287C8.30016 17.8355 8.00715 17.7157 7.90036 17.461C7.79357 17.2064 7.91344 16.9133 8.16809 16.8065L23.8033 10.2055C24.0579 10.0987 24.3509 10.2186 24.4577 10.4733Z" fill="#00A6ED"/>
<path d="M6.27221 9.16596L6.04537 8.75009H5.81941C5.51907 8.75009 5.2865 8.48718 5.32314 8.18909L5.39969 7.56634L5.24221 7.27763C4.57303 6.0508 5.09361 4.514 6.37064 3.94644C7.55552 3.41982 8.94424 3.93317 9.50171 5.10385L9.79494 5.71963C10.4733 7.14413 9.93229 8.85063 8.55714 9.62415L8.32445 9.75504C7.59574 10.1649 6.67257 9.89995 6.27221 9.16596Z" fill="#FFC83D"/>
<path d="M8.17364 15.5437C8.54364 14.9137 9.62364 15.6337 9.62364 15.6337L10.5736 17.8537L9.63364 18.3337C9.60979 18.3448 9.58405 18.3569 9.55673 18.3697C9.26331 18.5076 8.78723 18.7312 8.50364 18.7037C8.14364 18.6737 7.70364 18.1237 7.49364 17.6337C7.49364 17.6337 7.24364 17.0237 7.31364 16.4737C7.36364 16.0637 7.84364 16.0837 7.84364 16.0837C7.84364 16.0837 7.94364 15.9337 8.17364 15.5437Z" fill="#FFC83D"/>
<path d="M10.5 5.5C10.5 5.67823 10.4689 5.8492 10.4119 6.00779C10.5674 5.98008 10.7334 6.0263 10.8536 6.14645C11.0489 6.34171 11.0489 6.65829 10.8536 6.85355L10.4587 7.20431C10.1826 7.44959 9.73771 7.32069 9.56456 6.99446C9.13116 6.17787 8.40482 5.54053 7.52563 5.22254C7.65578 4.52667 8.2664 4 9.00002 4C9.82845 4 10.5 4.67157 10.5 5.5Z" fill="#F1A11E"/>
<path d="M7.12509 8.21894C7.19413 8.21894 7.25009 8.27491 7.25009 8.34394C7.25009 8.51849 7.20765 8.68461 7.09977 8.8086C6.98931 8.93555 6.82638 8.99996 6.62508 8.99996C6.55604 8.99996 6.50008 8.944 6.50008 8.87496C6.50008 8.80593 6.55604 8.74996 6.62508 8.74996C6.77145 8.74996 6.85853 8.705 6.91116 8.6445C6.96637 8.58105 7.00009 8.48166 7.00009 8.34394C7.00009 8.27491 7.05606 8.21894 7.12509 8.21894Z" fill="#990839"/>
<path d="M9.96898 3.40284C9.49957 2.24525 8.19892 1.69163 7.07429 2.17479L5.3629 2.91967C4.23827 3.40284 3.70041 4.74161 4.16982 5.89919L4.29695 6.21123C4.39474 6.45282 4.66856 6.56354 4.90327 6.46288L6.57554 5.73813C6.95694 5.57708 7.38723 5.75827 7.5437 6.15084C7.61215 6.31189 7.78818 6.38235 7.94465 6.32196L10.1548 5.36569C10.4384 5.23484 10.5753 4.8926 10.4579 4.60068L9.96898 3.40284Z" fill="#00A6ED"/>
<path d="M8 5.5C8.27614 5.5 8.5 5.27614 8.5 5C8.5 4.72386 8.27614 4.5 8 4.5C7.72386 4.5 7.5 4.72386 7.5 5C7.5 5.27614 7.72386 5.5 8 5.5Z" fill="#0074BA"/>
<path d="M5.32484 7.68987L5.33486 7.68659C5.36925 7.67533 5.40684 7.67953 5.4379 7.6981L6.39351 8.26943L7.30408 7.87918C7.87082 7.6363 8.1295 6.97687 7.87908 6.41342C7.63333 5.8605 6.98888 5.60769 6.43273 5.84604L4.85474 6.52233C4.89832 6.79995 4.98967 7.07539 5.13258 7.33739L5.32484 7.68987Z" fill="#26EAFC"/>
<path d="M5.34859 7.73154C5.35908 7.75054 5.37434 7.76648 5.39287 7.77779L5.96618 8.12796C6.24259 8.29678 6.58364 8.32127 6.88134 8.19369L7.35329 7.99142C7.98408 7.72108 8.272 6.98713 7.99328 6.36C7.71976 5.74459 7.00247 5.4632 6.38347 5.72849L4.83765 6.39099C4.85489 6.55844 4.88924 6.72575 4.94153 6.89045L6.58043 6.18806C6.94801 6.03053 7.37395 6.19762 7.53637 6.56307C7.70189 6.93548 7.53091 7.37132 7.15633 7.53185L6.54518 7.79377C6.47112 7.82551 6.3863 7.81961 6.31734 7.77792L5.89569 7.52295C5.75354 7.437 5.57799 7.42725 5.4272 7.49694L5.26138 7.57358L5.34859 7.73154Z" fill="#9B9B9B"/>
<path d="M8.84816 17.2371C8.58008 16.6009 8.87849 15.8678 9.51467 15.5997L12.8739 14.1842C13.0017 14.1304 13.0613 13.9828 13.0067 13.8553L11.3512 9.99247C11.0792 9.35793 11.3732 8.62309 12.0077 8.35114C12.6422 8.0792 13.3771 8.37314 13.649 9.00768L15.3045 12.8705C15.9054 14.2725 15.2504 15.8957 13.8447 16.488L10.4855 17.9036C9.84928 18.1716 9.11623 17.8732 8.84816 17.2371Z" fill="#FF822D"/>
<path d="M16.4005 19.1274L18.3588 24.0348C18.4394 24.2369 18.3438 24.4663 18.1435 24.5513L17.851 24.6754L12.8539 26.8046C12.6005 26.9126 12.3074 26.7952 12.1986 26.5422L11.9791 26.0317C11.8374 25.7022 11.883 25.3221 12.0985 25.0355L13.971 22.546L13.0167 20.5699C12.7468 20.0111 13.0458 19.344 13.6424 19.1735L13.9997 19.0714C14.1448 19.03 14.2989 19.0977 14.3665 19.2327C14.4409 19.3813 14.6182 19.4461 14.7709 19.3805L15.8712 18.9081C16.0779 18.8193 16.3171 18.9184 16.4005 19.1274Z" fill="#00A6ED"/>
<path d="M16.4006 19.1274L17.7509 22.4999L15.8468 23.2448C15.1171 23.5302 14.2907 23.206 13.9498 22.5006L13.0167 20.5699C12.7469 20.0111 13.0458 19.344 13.6425 19.1735L13.9997 19.0714C14.1449 19.03 14.299 19.0977 14.3665 19.2327C14.4409 19.3813 14.6183 19.4461 14.771 19.3805L15.8712 18.9081C16.078 18.8193 16.3172 18.9184 16.4006 19.1274Z" fill="#26EAFC"/>
<path d="M22.4934 9.42746C22.6485 9.31888 22.8502 9.40549 22.9227 9.58375L23.9736 12.1659C24.0461 12.3441 23.9648 12.5533 23.781 12.5914C23.0053 12.7523 22.2015 12.3337 21.8834 11.5522C21.5654 10.7707 21.8387 9.88582 22.4934 9.42746Z" fill="#0074BA"/>
<path d="M12.9874 20.5032L16.5902 19.6025L16.4006 19.1274C16.3173 18.9185 16.078 18.8193 15.8713 18.9081L14.771 19.3806C14.6183 19.4461 14.441 19.3813 14.3666 19.2327C14.299 19.0978 14.1449 19.03 13.9998 19.0715L13.6426 19.1736C13.0695 19.3373 12.7711 19.9591 12.9874 20.5032Z" fill="#0074BA"/>
<path d="M13.8876 22.3652C13.7629 22.4276 13.6113 22.3759 13.5507 22.2503L13.3332 21.8C13.2738 21.6769 13.3242 21.5289 13.4465 21.4677L14.2764 21.0528C14.5234 20.9293 14.8238 21.0294 14.9472 21.2764C15.0707 21.5234 14.9706 21.8237 14.7236 21.9472L13.8876 22.3652Z" fill="#0074BA"/>
<path d="M12.6016 24.3087C12.5135 24.2206 12.5037 24.0811 12.5786 23.9816L12.8821 23.5781C12.9735 23.4566 13.1512 23.4441 13.2587 23.5515L13.8536 24.1464C14.0489 24.3417 14.0489 24.6583 13.8536 24.8536C13.6583 25.0488 13.3418 25.0488 13.1465 24.8536L12.6016 24.3087Z" fill="#0074BA"/>
<path d="M18.3589 24.0349L18.0951 23.3737L16.3229 24.13C16.0731 24.2367 15.9541 24.5232 16.0548 24.7754L16.282 25.344L18.1436 24.5514C18.3439 24.4664 18.4395 24.2369 18.3589 24.0349Z" fill="#0074BA"/>
<path d="M13.9743 25.6889C13.8702 25.4281 13.5718 25.3041 13.3136 25.4144L11.9626 25.9909C12.0333 26.1774 12.1129 26.3612 12.1941 26.5442C12.3058 26.7961 12.6006 26.9127 12.854 26.8047L14.192 26.2346L13.9743 25.6889Z" fill="#0074BA"/>
<path d="M26.9599 21.5104C27.0679 21.7633 26.9503 22.0558 26.6973 22.1637L8.65326 29.8598C7.8068 30.2208 6.82532 29.8622 6.41154 29.0406L6.07994 28.3822C5.8944 28.0138 6.04282 27.5649 6.41143 27.3794C6.78005 27.194 7.22927 27.3423 7.41481 27.7107L7.74641 28.3691C7.80552 28.4865 7.94574 28.5378 8.06666 28.4862L26.1107 20.7901C26.3637 20.6822 26.6564 20.7997 26.7644 21.0525L26.9599 21.5104Z" fill="#FF822D"/>
</svg>

<svg xmlns="http://www.w3.org/2000/svg" width="32" height="32" fill="none"><path fill="#F8312F" d="m19.056 10.97-4.839-3.548-.002.003a2.75 2.75 0 0 0-3.247 4.429l-.003.003.08.058c.028.022.056.043.085.063l4.67 3.424a2.75 2.75 0 1 0 3.256-4.433Z"/><path fill="#F8312F" d="M8.665 7.157a1.125 1.125 0 0 1 1.573-.242l2.218 1.626a1.125 1.125 0 1 1-1.33 1.815L8.906 8.73a1.125 1.125 0 0 1-.242-1.573Z"/><path fill="#9B9B9B" d="M14.892 14.125a2.762 2.762 0 0 1-.137-1.038l4.553-1.91a2.75 2.75 0 0 1-.954 4.687l-3.11 1.388 2.12 4.623a1.5 1.5 0 1 1-2.728 1.25l-2.75-6a1.5 1.5 0 0 1 .753-1.995l2.253-1.005Z"/><path fill="#00A6ED" d="M24.458 10.473a.5.5 0 0 1-.268.655l-15.635 6.6a.5.5 0 1 1-.387-.922l15.635-6.6a.5.5 0 0 1 .655.267Z"/><path fill="#FFC83D" d="m6.272 9.166-.227-.416H5.82a.5.5 0 0 1-.496-.56l.077-.624-.158-.288a2.392 2.392 0 1 1 4.26-2.174l.293.616a3 3 0 0 1-1.238 3.904l-.233.131a1.5 1.5 0 0 1-2.052-.589ZM8.174 15.544c.37-.63 1.45.09 1.45.09l.95 2.22-.94.48c-.024.01-.05.023-.077.036-.294.138-.77.361-1.053.334-.36-.03-.8-.58-1.01-1.07 0 0-.25-.61-.18-1.16.05-.41.53-.39.53-.39s.1-.15.33-.54Z"/><path fill="#F1A11E" d="M10.5 5.5c0 .178-.031.35-.088.508a.5.5 0 0 1 .442.846l-.395.35c-.276.246-.721.117-.894-.21a3.762 3.762 0 0 0-2.04-1.771A1.5 1.5 0 0 1 10.5 5.5Z"/><path fill="#990839" d="M7.125 8.219c.07 0 .125.056.125.125 0 .174-.042.34-.15.465-.11.127-.274.191-.475.191a.125.125 0 1 1 0-.25c.146 0 .234-.045.286-.105.055-.064.09-.163.09-.301 0-.07.055-.125.124-.125Z"/><path fill="#00A6ED" d="M9.969 3.403c-.47-1.158-1.77-1.711-2.895-1.228l-1.711.745C4.238 3.403 3.7 4.742 4.17 5.9l.127.311a.459.459 0 0 0 .606.252l1.673-.725a.73.73 0 0 1 .968.413.31.31 0 0 0 .4.171l2.21-.956a.603.603 0 0 0 .304-.765l-.489-1.198Z"/><path fill="#0074BA" d="M8 5.5a.5.5 0 1 0 0-1 .5.5 0 0 0 0 1Z"/><path fill="#26EAFC" d="m5.325 7.69.01-.003a.125.125 0 0 1 .103.011l.956.571.91-.39a1.106 1.106 0 1 0-.871-2.033l-1.578.676c.043.278.135.553.278.815l.192.353Z"/><path fill="#9B9B9B" d="M5.349 7.732c.01.019.025.034.044.046l.573.35a1 1 0 0 0 .915.066l.472-.203a1.231 1.231 0 0 0-.97-2.263l-1.545.663c.017.167.051.335.104.5l1.638-.703a.731.731 0 0 1 .576 1.344l-.61.262a.25.25 0 0 1-.229-.016l-.421-.255a.5.5 0 0 0-.469-.026l-.166.077.088.158Z"/><path fill="#FF822D" d="M8.848 17.237a1.25 1.25 0 0 1 .667-1.637l3.359-1.416a.25.25 0 0 0 .133-.329L11.35 9.992a1.25 1.25 0 1 1 2.298-.984l1.656 3.863a2.75 2.75 0 0 1-1.46 3.617l-3.36 1.416a1.25 1.25 0 0 1-1.637-.667Z"/><path fill="#00A6ED" d="m16.4 19.127 1.959 4.908a.4.4 0 0 1-.216.516l-.292.124-4.997 2.13a.5.5 0 0 1-.655-.263l-.22-.51a1 1 0 0 1 .12-.997l1.872-2.489-.954-1.976a1 1 0 0 1 .625-1.396L14 19.07c.145-.041.299.027.367.162a.314.314 0 0 0 .404.148l1.1-.473a.4.4 0 0 1 .53.22Z"/><path fill="#26EAFC" d="m16.4 19.127 1.35 3.373-1.903.745a1.5 1.5 0 0 1-1.897-.744l-.933-1.931a1 1 0 0 1 .626-1.396L14 19.07c.145-.041.299.027.367.162a.314.314 0 0 0 .404.148l1.1-.473a.4.4 0 0 1 .53.22Z"/><path fill="#0074BA" d="M22.493 9.427c.155-.108.357-.022.43.157l1.05 2.582c.073.178-.008.387-.192.425a1.687 1.687 0 0 1-1.898-1.039 1.782 1.782 0 0 1 .61-2.125ZM12.987 20.503l3.603-.9-.19-.476a.4.4 0 0 0-.529-.219l-1.1.473a.314.314 0 0 1-.404-.148.314.314 0 0 0-.367-.162l-.357.103a1 1 0 0 0-.656 1.33ZM13.888 22.365a.25.25 0 0 1-.337-.115l-.218-.45a.25.25 0 0 1 .114-.332l.83-.415a.5.5 0 1 1 .447.894l-.836.418ZM12.602 24.309a.25.25 0 0 1-.023-.327l.303-.404a.25.25 0 0 1 .377-.026l.595.594a.5.5 0 0 1-.707.708l-.545-.545ZM18.359 24.035l-.264-.661-1.772.756a.5.5 0 0 0-.268.645l.227.569 1.862-.793a.4.4 0 0 0 .215-.516ZM13.974 25.689a.5.5 0 0 0-.66-.275l-1.351.577c.07.186.15.37.231.553a.506.506 0 0 0 .66.26l1.338-.57-.218-.545Z"/><path fill="#FF822D" d="M26.96 21.51a.498.498 0 0 1-.263.654L8.653 29.86a1.744 1.744 0 0 1-2.241-.82l-.332-.658a.747.747 0 1 1 1.335-.671l.331.658c.06.117.2.169.32.117l18.045-7.696a.498.498 0 0 1 .653.262l.196.458Z"/></svg>
